<?xml version="1.0"?><map version="1.10" orientation="orthogonal" renderorder="right-down" width="12" height="16" tilewidth="32" tileheight="32" infinite="0"><tileset firstgid="1" source="floor.tsx"/><layer id="1" name="floor" width="12" height="16"><data encoding="csv">1,1,1,1,1,1,1,1,1,1,1,1,1,1,1,1,1,1,1,1,1,1,1,1,1,1,1,1,1,1,1,1,1,1,1,1,1,1,1,1,1,1,1,1,1,1,1,1,1,1,1,1,1,1,1,1,1,1,1,1,1,1,1,1,1,1,1,1,1,1,1,1,1,1,1,1,1,1,1,1,1,1,1,1,1,1,1,1,1,1,1,1,1,1,1,1,1,1,1,1,1,1,1,1,1,1,1,1,1,1,1,1,1,1,1,1,1,1,1,1,1,1,1,1,1,1,1,1,1,1,1,1,1,1,1,1,1,1,1,1,1,1,1,1,1,1,1,1,1,1,1,1,1,1,1,1,1,1,1,1,1,1,1,1,1,1,1,1,1,1,1,1,1,1,1,1,1,1,1,1,1,1,1,1,1,1,1,1,1,1,1,1</data></layer><objectgroup id="2" name="collision"><object id="1" x="0" y="0" width="384" height="64"><properties><property name="collision" type="bool" value="true"/></properties></object><object id="2" x="0" y="454" width="384" height="58"><properties><property name="collision" type="bool" value="true"/></properties></object><object id="3" x="0" y="0" width="54" height="512"><properties><property name="collision" type="bool" value="true"/></properties></object><object id="4" x="330" y="0" width="54" height="512"><properties><property name="collision" type="bool" value="true"/></properties></object><object id="5" x="252" y="220" width="48" height="20"><properties><property name="collision" type="bool" value="true"/></properties></object><object id="6" x="86" y="269" width="31" height="20"><properties><property name="collision" type="bool" value="true"/></properties></object><object id="7" x="136" y="309" width="31" height="20"><properties><property name="collision" type="bool" value="true"/></properties></object><object id="8" x="263" y="122" width="42" height="26"><properties><property name="collision" type="bool" value="true"/></properties></object><object id="9" x="247" y="350" width="31" height="31"><properties><property name="collision" type="bool" value="true"/></properties></object></objectgroup></map>