<?xml version="1.0"?><map version="1.10" orientation="orthogonal" renderorder="right-down" width="24" height="24" tilewidth="32" tileheight="32" infinite="0"><tileset firstgid="1" source="floor.tsx"/><layer id="1" name="floor" width="24" height="24"><data encoding="csv">1,1,1,1,1,1,1,1,1,1,1,1,1,1,1,1,1,1,1,1,1,1,1,1,1,1,1,1,1,1,1,1,1,1,1,1,1,1,1,1,1,1,1,1,1,1,1,1,1,1,1,1,1,1,1,1,1,1,1,1,1,1,1,1,1,1,1,1,1,1,1,1,1,1,1,1,1,1,1,1,1,1,1,1,1,1,1,1,1,1,1,1,1,1,1,1,1,1,1,1,1,1,1,1,1,1,1,1,1,1,1,1,1,1,1,1,1,1,1,1,1,1,1,1,1,1,1,1,1,1,1,1,1,1,1,1,1,1,1,1,1,1,1,1,1,1,1,1,1,1,1,1,1,1,1,1,1,1,1,1,1,1,1,1,1,1,1,1,1,1,1,1,1,1,1,1,1,1,1,1,1,1,1,1,1,1,1,1,1,1,1,1,1,1,1,1,1,1,1,1,1,1,1,1,1,1,1,1,1,1,1,1,1,1,1,1,1,1,1,1,1,1,1,1,1,1,1,1,1,1,1,1,1,1,1,1,1,1,1,1,1,1,1,1,1,1,1,1,1,1,1,1,1,1,1,1,1,1,1,1,1,1,1,1,1,1,1,1,1,1,1,1,1,1,1,1,1,1,1,1,1,1,1,1,1,1,1,1,1,1,1,1,1,1,1,1,1,1,1,1,1,1,1,1,1,1,1,1,1,1,1,1,1,1,1,1,1,1,1,1,1,1,1,1,1,1,1,1,1,1,1,1,1,1,1,1,1,1,1,1,1,1,1,1,1,1,1,1,1,1,1,1,1,1,1,1,1,1,1,1,1,1,1,1,1,1,1,1,1,1,1,1,1,1,1,1,1,1,1,1,1,1,1,1,1,1,1,1,1,1,1,1,1,1,1,1,1,1,1,1,1,1,1,1,1,1,1,1,1,1,1,1,1,1,1,1,1,1,1,1,1,1,1,1,1,1,1,1,1,1,1,1,1,1,1,1,1,1,1,1,1,1,1,1,1,1,1,1,1,1,1,1,1,1,1,1,1,1,1,1,1,1,1,1,1,1,1,1,1,1,1,1,1,1,1,1,1,1,1,1,1,1,1,1,1,1,1,1,1,1,1,1,1,1,1,1,1,1,1,1,1,1,1,1,1,1,1,1,1,1,1,1,1,1,1,1,1,1,1,1,1,1,1,1,1,1,1,1,1,1,1,1,1,1,1,1,1,1,1,1,1,1,1,1,1,1,1,1,1,1,1,1,1,1,1,1,1,1,1,1,1,1,1,1,1,1,1,1,1,1,1,1,1,1,1,1</data></layer><objectgroup id="2" name="collision"><object id="1" x="0" y="0" width="768" height="54"><properties><property name="collision" type="bool" value="true"/></properties></object><object id="2" x="0" y="724" width="768" height="44"><properties><property name="collision" type="bool" value="true"/></properties></object><object id="3" x="0" y="0" width="30" height="768"><properties><property name="collision" type="bool" value="true"/></properties></object><object id="4" x="738" y="0" width="30" height="768"><properties><property name="collision" type="bool" value="true"/></properties></object><object id="5" x="309" y="107" width="56" height="38"><properties><property name="collision" type="bool" value="true"/></properties></object><object id="6" x="403" y="107" width="56" height="38"><properties><property name="collision" type="bool" value="true"/></properties></object><object id="7" x="156" y="186" width="50" height="34"><properties><property name="collision" type="bool" value="true"/></properties></object><object id="8" x="87" y="229" width="38" height="24"><properties><property name="collision" type="bool" value="true"/></properties></object><object id="9" x="156" y="308" width="50" height="34"><properties><property name="collision" type="bool" value="true"/></properties></object><object id="10" x="87" y="351" width="38" height="24"><properties><property name="collision" type="bool" value="true"/></properties></object><object id="11" x="312" y="353" width="58" height="39"><properties><property name="collision" type="bool" value="true"/></properties></object><object id="12" x="398" y="353" width="58" height="39"><properties><property name="collision" type="bool" value="true"/></properties></object><object id="13" x="551" y="201" width="56" height="38"><properties><property name="collision" type="bool" value="true"/></properties></object><object id="14" x="639" y="213" width="49" height="32"><properties><property name="collision" type="bool" value="true"/></properties></object><object id="15" x="551" y="323" width="56" height="38"><properties><property name="collision" type="bool" value="true"/></properties></object><object id="16" x="639" y="335" width="49" height="32"><properties><property name="collision" type="bool" value="true"/></properties></object><object id="17" x="259" y="613" width="56" height="38"><properties><property name="collision" type="bool" value="true"/></properties></object><object id="18" x="453" y="613" width="56" height="38"><properties><property name="collision" type="bool" value="true"/></properties></object><object id="19" x="359" y="572" width="50" height="34"><properties><property name="collision" type="bool" value="true"/></properties></object><object id="20" x="228" y="230" width="46" height="24"><properties><property name="collision" type="bool" value="true"/></properties></object><object id="21" x="476" y="414" width="36" height="22"><properties><property name="collision" type="bool" value="true"/></properties></object><object id="22" x="669" y="418" width="30" height="18"><properties><property name="collision" type="bool" value="true"/></properties></object><object id="23" x="524" y="111" width="36" height="22"><properties><property name="collision" type="bool" value="true"/></properties></object><object id="24" x="594" y="112" width="38" height="22"><properties><property name="collision" type="bool" value="true"/></properties></object></objectgroup></map>