<?xml version="1.0"?><map version="1.10" orientation="orthogonal" renderorder="right-down" width="12" height="16" tilewidth="32" tileheight="32" infinite="0"><tileset firstgid="1" source="floor.tsx"/><layer id="1" name="floor" width="12" height="16"><data encoding="csv">1,1,1,1,1,1,1,1,1,1,1,1,1,1,1,1,1,1,1,1,1,1,1,1,1,1,1,1,1,1,1,1,1,1,1,1,1,1,1,1,1,1,1,1,1,1,1,1,1,1,1,1,1,1,1,1,1,1,1,1,1,1,1,1,1,1,1,1,1,1,1,1,1,1,1,1,1,1,1,1,1,1,1,1,1,1,1,1,1,1,1,1,1,1,1,1,1,1,1,1,1,1,1,1,1,1,1,1,1,1,1,1,1,1,1,1,1,1,1,1,1,1,1,1,1,1,1,1,1,1,1,1,1,1,1,1,1,1,1,1,1,1,1,1,1,1,1,1,1,1,1,1,1,1,1,1,1,1,1,1,1,1,1,1,1,1,1,1,1,1,1,1,1,1,1,1,1,1,1,1,1,1,1,1,1,1,1,1,1,1,1,1</data></layer><objectgroup id="2" name="collision"><object id="1" x="0" y="0" width="384" height="64"><properties><property name="collision" type="bool" value="true"/></properties></object><object id="2" x="0" y="454" width="384" height="58"><properties><property name="collision" type="bool" value="true"/></properties></object><object id="3" x="0" y="0" width="54" height="512"><properties><property name="collision" type="bool" value="true"/></properties></object><object id="4" x="330" y="0" width="54" height="512"><properties><property name="collision" type="bool" value="true"/></properties></object><object id="5" x="235" y="242" width="58" height="18"><properties><property name="collision" type="bool" value="true"/></properties></object><object id="6" x="98" y="222" width="31" height="20"><properties><property name="collision" type="bool" value="true"/></properties></object><object id="7" x="87" y="128" width="37" height="24"><properties><property name="collision" type="bool" value="true"/></properties></object><object id="8" x="266" y="123" width="41" height="27"><properties><property name="collision" type="bool" value="true"/></properties></object><object id="9" x="265" y="345" width="31" height="31"><properties><property name="collision" type="bool" value="true"/></properties></object></objectgroup></map>