<?xml version="1.0"?><map version="1.10" orientation="orthogonal" renderorder="right-down" width="12" height="16" tilewidth="32" tileheight="32" infinite="0"><tileset firstgid="1" source="floor.tsx"/><layer id="1" name="floor" width="12" height="16"><data encoding="csv">1,1,1,1,1,1,1,1,1,1,1,1,1,1,1,1,1,1,1,1,1,1,1,1,1,1,1,1,1,1,1,1,1,1,1,1,1,1,1,1,1,1,1,1,1,1,1,1,1,1,1,1,1,1,1,1,1,1,1,1,1,1,1,1,1,1,1,1,1,1,1,1,1,1,1,1,1,1,1,1,1,1,1,1,1,1,1,1,1,1,1,1,1,1,1,1,1,1,1,1,1,1,1,1,1,1,1,1,1,1,1,1,1,1,1,1,1,1,1,1,1,1,1,1,1,1,1,1,1,1,1,1,1,1,1,1,1,1,1,1,1,1,1,1,1,1,1,1,1,1,1,1,1,1,1,1,1,1,1,1,1,1,1,1,1,1,1,1,1,1,1,1,1,1,1,1,1,1,1,1,1,1,1,1,1,1,1,1,1,1,1,1</data></layer><objectgroup id="2" name="collision"><object id="1" x="0" y="0" width="384" height="64"><properties><property name="collision" type="bool" value="true"/></properties></object><object id="2" x="0" y="454" width="384" height="58"><properties><property name="collision" type="bool" value="true"/></properties></object><object id="3" x="0" y="0" width="54" height="512"><properties><property name="collision" type="bool" value="true"/></properties></object><object id="4" x="330" y="0" width="54" height="512"><properties><property name="collision" type="bool" value="true"/></properties></object><object id="5" x="177" y="193" width="22" height="25"><properties><property name="collision" type="bool" value="true"/></properties></object><object id="6" x="88" y="246" width="50" height="29"><properties><property name="collision" type="bool" value="true"/></properties></object><object id="7" x="251" y="246" width="58" height="35"><properties><property name="collision" type="bool" value="true"/></properties></object></objectgroup></map>